assets/icons/full-body-small.svg

<svg width="25" height="25" viewBox="0 0 25 25" fill="none" xmlns="http://www.w3.org/2000/svg">
<path d="M12.6433 9.65958C10.1199 9.65958 7.72439 11.5692 8.02572 14.2047C8.04912 14.4095 8.07705 14.6243 8.10952 14.8528C8.20612 15.5328 8.76979 16.0269 9.42339 16.0269H10.1705L10.7155 19.5868C10.8696 20.5932 11.6953 21.333 12.6642 21.333C13.6331 21.333 14.4588 20.5932 14.6129 19.5868L15.1579 16.0269H15.9147C16.564 16.0269 17.1261 15.5395 17.2251 14.8644C17.2568 14.6488 17.2839 14.445 17.3067 14.2497C17.6158 11.5954 15.1853 9.65958 12.6433 9.65958Z" fill="white"/>
<path d="M12.6639 9.65959C14.1495 9.65959 15.3539 8.39259 15.3539 6.82966C15.3539 5.26673 14.1495 3.99973 12.6639 3.99973C11.1782 3.99973 9.97379 5.26673 9.97379 6.82966C9.97379 8.39259 11.1782 9.65959 12.6639 9.65959Z" fill="white"/>
<path d="M12.6436 7.94571C15.7534 7.94586 19.2487 10.2966 19.041 14.0775L19.0098 14.4477C18.9848 14.6625 18.9548 14.8836 18.9209 15.1137C18.7385 16.3562 17.8292 17.3532 16.6436 17.6488L16.3076 19.8461C16.0351 21.6252 14.5427 23.0473 12.6641 23.0473C10.9028 23.0472 9.4811 21.7975 9.08594 20.1752L9.02051 19.8461L8.6836 17.6459C7.58298 17.3672 6.72583 16.4846 6.46387 15.3695L6.41211 15.0941C6.37792 14.8534 6.34776 14.6229 6.32227 14.3998L6.292 14.0316C6.09179 10.2738 9.54794 7.94571 12.6436 7.94571ZM12.6436 11.3734C10.8501 11.3734 9.65672 12.6296 9.71876 13.8881L9.72852 14.0102L9.76758 14.3129H10.1709L10.3272 14.3197C11.1043 14.3905 11.7449 14.9825 11.8652 15.767L12.4102 19.3275L12.4287 19.4066C12.4838 19.5742 12.6121 19.6185 12.6641 19.6186C12.7232 19.6186 12.8821 19.5608 12.918 19.3275L13.4629 15.768L13.4941 15.6137C13.6817 14.856 14.3644 14.3129 15.1582 14.3129H15.5693C15.5812 14.2229 15.5937 14.1358 15.6035 14.0512L15.6143 13.9281C15.6785 12.656 14.4586 11.3736 12.6436 11.3734Z" fill="white"/>
<path d="M13.6398 6.8298C13.6398 6.13092 13.1222 5.71381 12.6642 5.71359C12.2062 5.71359 11.6877 6.13074 11.6877 6.8298C11.6877 7.52878 12.2062 7.94504 12.6642 7.94504C13.1222 7.94482 13.6397 7.5286 13.6398 6.8298ZM17.0685 6.8298C17.0684 9.25642 15.1773 11.3735 12.6642 11.3737C10.151 11.3737 8.25999 9.25654 8.25992 6.8298C8.25992 4.403 10.1509 2.28586 12.6642 2.28586C15.1773 2.28606 17.0685 4.40312 17.0685 6.8298Z" fill="white"/>
</svg>

<svg xmlns="http://www.w3.org/2000/svg" width="25" height="25" fill="none" viewBox="0 0 25 25"><path fill="#fff" d="M12.643 9.66c-2.523 0-4.919 1.91-4.617 4.545q.034.306.084.648c.096.68.66 1.174 1.313 1.174h.748l.545 3.56c.154 1.006.98 1.746 1.948 1.746.97 0 1.795-.74 1.949-1.746l.545-3.56h.757c.649 0 1.211-.488 1.31-1.163q.048-.322.082-.614c.309-2.655-2.122-4.59-4.664-4.59m.021 0c1.486 0 2.69-1.267 2.69-2.83S14.15 4 12.664 4s-2.69 1.267-2.69 2.83 1.204 2.83 2.69 2.83"/><path fill="#fff" d="M12.644 7.946c3.11 0 6.605 2.35 6.397 6.132l-.031.37q-.038.321-.09.666a3.065 3.065 0 0 1-2.276 2.535l-.336 2.197c-.273 1.78-1.765 3.201-3.644 3.201-1.761 0-3.183-1.25-3.578-2.872l-.065-.329-.337-2.2a3.07 3.07 0 0 1-2.22-2.277l-.052-.275a26 26 0 0 1-.09-.694l-.03-.368c-.2-3.758 3.256-6.086 6.352-6.086m0 3.427c-1.794 0-2.987 1.257-2.925 2.515l.01.122.039.303h.403l.156.007c.777.07 1.418.662 1.538 1.447l.545 3.56.019.08c.055.167.183.212.235.212.06 0 .218-.058.254-.291l.545-3.56.031-.154a1.714 1.714 0 0 1 1.664-1.301h.411q.02-.135.034-.262l.011-.123c.064-1.272-1.155-2.554-2.97-2.555"/><path fill="#fff" d="M13.64 6.83c0-.7-.518-1.116-.976-1.116s-.976.417-.976 1.116.518 1.115.976 1.115.976-.416.976-1.115m3.428 0c0 2.426-1.89 4.544-4.404 4.544-2.513 0-4.404-2.117-4.404-4.544s1.89-4.544 4.404-4.544c2.513 0 4.405 2.117 4.405 4.544"/></svg>
